src/assets/images/analysis_execute_images/ExecuteImg1.svg

<svg width="193" height="162" viewBox="0 0 193 162" fill="none" xmlns="http://www.w3.org/2000/svg">
<g clip-path="url(#clip0_2351_15382)">
<path d="M41.8936 101.237L45.1892 103.14C45.5227 103.332 45.8939 103.45 46.277 103.483C46.6602 103.517 47.046 103.466 47.4076 103.334C47.7692 103.203 48.0978 102.993 48.3707 102.721C48.6435 102.449 48.8539 102.12 48.9872 101.757C49.1306 101.367 49.1809 100.949 49.1341 100.536C49.0872 100.122 48.9444 99.7261 48.7172 99.3784C48.4901 99.0308 48.1848 98.7416 47.8261 98.5341C47.4674 98.3266 47.0652 98.2066 46.6519 98.1838L42.661 97.9633L30.6391 94.3075L28.701 87.0168L23.6328 89.8769L27.1176 98.1657L41.8936 101.237Z" fill="#FFB8B8"/>
<path d="M26.1837 63.3969C25.4213 64.2652 25.5589 65.3096 26.1142 66.1575C26.6694 67.0054 27.5934 67.7109 28.402 68.459C28.9214 68.9397 29.402 69.4497 29.6347 70.028C29.7629 70.3236 29.8048 70.6498 29.7556 70.9685C29.7064 71.2871 29.5682 71.5852 29.3569 71.828C28.8274 72.4573 27.841 72.8835 26.8787 73.2487C24.1267 74.286 21.2871 75.0716 18.3945 75.5959C20.8314 72.7353 22.0512 69.5137 21.8725 66.4105C21.835 65.7592 21.7387 65.1019 21.9651 64.4492C22.1206 64.0574 22.3664 63.7082 22.6824 63.4305C22.9983 63.1527 23.3754 62.9543 23.7826 62.8515C24.7512 62.5721 26.027 62.8484 26.1755 63.486" fill="#2F2E41"/>
<path d="M5.30469 155.196L8.79173 155.348L15.6742 123.409L9.70141 123.667L5.30469 155.196Z" fill="#FFB8B8"/>
<path d="M40.1764 148.342L37.2958 149.865L19.2773 123.007L25.0157 120.469L40.1764 148.342Z" fill="#FFB8B8"/>
<path d="M20.0899 73.4505C23.1361 73.4505 25.6056 70.9695 25.6056 67.9091C25.6056 64.8487 23.1361 62.3677 20.0899 62.3677C17.0437 62.3677 14.5742 64.8487 14.5742 67.9091C14.5742 70.9695 17.0437 73.4505 20.0899 73.4505Z" fill="#FFB8B8"/>
<path d="M17.2828 70.8145C17.2828 70.8145 15.3119 74.9269 12.583 74.7746C12.583 74.7746 7.42836 72.6422 5.76069 78.4301L3.94141 82.9995L28.0469 87.112C28.0469 87.112 26.6824 78.7347 23.4987 78.5824C23.4987 78.5824 19.8601 78.2778 20.3149 76.907C20.7698 75.5362 22.4374 72.3376 22.4374 72.3376L17.2828 70.8145Z" fill="#FFB8B8"/>
<path d="M25.3165 91.8336L21.6779 99.7539L24.6766 112.556L39.2809 140.092C39.2809 140.092 32.555 146.154 30.8784 147.126C29.4241 147.97 17.3163 125.107 16.8742 120.394C16.7283 118.839 14.0734 150.342 14.0734 150.342C14.0734 150.342 4.06446 148.683 1.26953 148.131C1.26953 148.131 3.28317 133.802 4.47049 120.394C5.3857 110.059 4.55351 100.693 9.70096 96.2507L9.24614 87.4165L21.3747 86.9596L25.3165 91.8336Z" fill="#2F2E41"/>
<path d="M6.48054 161.07L12.0474 161.882C12.4787 162.044 12.9545 162.038 13.382 161.867C13.8094 161.695 14.158 161.37 14.3597 160.954C14.5235 160.616 14.5818 160.237 14.5269 159.865C14.472 159.493 14.3064 159.147 14.052 158.872L11.6891 156.315L9.98856 152.629C8.97151 151.585 8.27629 151.954 7.88761 153.669L5.1691 152.811L4.45631 157.625C4.34964 158.345 4.4925 159.081 4.86099 159.708C5.22948 160.335 5.80123 160.816 6.48054 161.07Z" fill="#2F2E41"/>
<path d="M38.21 156.034L43.8351 156.014C44.2855 156.11 44.7552 156.034 45.1529 155.801C45.5506 155.568 45.8477 155.194 45.9863 154.753C46.0989 154.395 46.101 154.011 45.9922 153.652C45.8834 153.292 45.669 152.974 45.377 152.74L42.6654 150.56L40.4434 147.165C39.2846 146.283 38.651 146.751 38.5177 148.505L35.7031 148.058V152.925C35.7031 153.653 35.9521 154.359 36.4085 154.925C36.8648 155.491 37.5008 155.882 38.21 156.034Z" fill="#2F2E41"/>
<path d="M17.3066 59.391C16.3697 58.9796 15.2549 59.1409 14.3503 59.6199C13.4458 60.0988 12.7231 60.8625 12.0906 61.6696C9.91263 64.4622 8.64261 67.8605 8.45288 71.4031C8.40333 72.3715 8.44982 73.395 8.95164 74.2233C9.50311 75.1336 10.5125 75.6561 11.5123 76.0118C14.8643 77.1853 18.5419 76.982 21.7456 75.4462C20.0611 74.074 18.5024 72.5527 17.0883 70.9008C16.8233 70.5912 16.5463 70.1937 16.681 69.8085C16.7659 69.621 16.8975 69.4588 17.063 69.3373L20.3104 66.5041L20.2286 67.6503C20.8745 67.6124 21.4951 67.3852 22.0138 66.9967C22.5325 66.6083 22.9265 66.0757 23.1471 65.4647C22.9905 65.7822 23.2895 66.1722 23.6349 66.2436C23.9804 66.315 24.3301 66.1719 24.6541 66.0319C25.4398 65.6922 26.2933 65.2877 26.6419 64.5029C26.7516 64.2263 26.8041 63.9301 26.7962 63.6324C26.7883 63.3347 26.7201 63.0417 26.5958 62.7714C26.3437 62.2318 25.984 61.7499 25.5389 61.3557C24.4467 60.3427 23.1179 59.6227 21.6753 59.2624C20.2327 58.9021 18.723 58.913 17.2857 59.2942" fill="#2F2E41"/>
<path d="M16.204 100.444L18.6259 103.388C18.8709 103.685 19.1777 103.926 19.5247 104.092C19.8718 104.259 20.2509 104.347 20.6354 104.351C21.02 104.355 21.4009 104.275 21.7514 104.116C22.102 103.958 22.4139 103.724 22.6652 103.431C22.9358 103.117 23.129 102.742 23.2294 102.339C23.3297 101.936 23.3344 101.514 23.2431 101.108C23.1517 100.703 22.9669 100.324 22.7034 100.004C22.4399 99.683 22.1052 99.4289 21.7261 99.2619L18.0658 97.6489L8.08438 89.9886L8.81504 82.4781L3.07031 83.3704L3.43951 92.3605L16.204 100.444Z" fill="#FFB8B8"/>
<path d="M31.231 93.8137C31.231 93.8137 28.8704 85.1277 27.625 85.1298C26.3796 85.1318 24.7119 84.9795 24.7119 84.9795C24.7119 84.9795 22.741 79.1916 12.5834 81.0194C2.42572 82.8471 6.82232 79.3439 3.94178 80.7148C1.06125 82.0856 0 91.6813 0 91.6813C0 91.6813 15.6155 86.5027 18.9509 89.3966C20.8663 91.0796 22.9492 92.5598 25.1667 93.8137C25.1667 93.8137 23.6507 97.6215 31.231 93.8137Z" fill="#2F2E41"/>
<path d="M85.3668 155.557H24.1484V155.959H85.3668V155.557Z" fill="#3F3D56"/>
<path d="M132.378 86.2149C152.819 86.2149 169.389 69.5673 169.389 49.0314C169.389 28.4956 152.819 11.848 132.378 11.848C111.938 11.848 95.3672 28.4956 95.3672 49.0314C95.3672 69.5673 111.938 86.2149 132.378 86.2149Z" fill="#E6E6E6"/>
<path d="M125.379 28.3293H64.1602V28.7313H125.379V28.3293Z" fill="#3F3D56"/>
<path d="M184.396 39.3839H64.1602V39.7858H184.396V39.3839Z" fill="#3F3D56"/>
<path d="M147.383 78.9792C126.865 78.9792 110.172 62.2086 110.172 41.5947C110.172 20.9809 126.865 4.21027 147.383 4.21027C167.901 4.21027 184.594 20.9809 184.594 41.5947C184.594 62.2086 167.901 78.9792 147.383 78.9792ZM147.383 4.61225C127.085 4.61225 110.572 21.2025 110.572 41.5947C110.572 61.987 127.085 78.5772 147.383 78.5772C167.681 78.5772 184.194 61.987 184.194 41.5947C184.194 21.2025 167.681 4.61225 147.383 4.61225Z" fill="#3F3D56"/>
<path d="M143.952 9.81662C146.65 9.81662 148.838 7.61909 148.838 4.90831C148.838 2.19753 146.65 0 143.952 0C141.254 0 139.066 2.19753 139.066 4.90831C139.066 7.61909 141.254 9.81662 143.952 9.81662Z" fill="#6C63FF"/>
<path d="M110.314 42.1399C112.059 42.1399 113.475 40.718 113.475 38.9639C113.475 37.2099 112.059 35.788 110.314 35.788C108.568 35.788 107.152 37.2099 107.152 38.9639C107.152 40.718 108.568 42.1399 110.314 42.1399Z" fill="#FF6584"/>
<path d="M185.782 46.2695C189.769 46.2695 193.002 43.0221 193.002 39.0162C193.002 35.0103 189.769 31.7629 185.782 31.7629C181.795 31.7629 178.562 35.0103 178.562 39.0162C178.562 43.0221 181.795 46.2695 185.782 46.2695Z" fill="#6C63FF"/>
<path d="M84.2984 67.6354H62.392V68.0374H84.2984C85.3769 68.0374 86.4113 68.4678 87.1739 69.234C87.9365 70.0002 88.3649 71.0393 88.3649 72.1229C88.3649 73.2064 87.9365 74.2456 87.1739 75.0117C86.4113 75.7779 85.3769 76.2083 84.2984 76.2083H51.1503C50.0717 76.2083 49.0374 75.7779 48.2748 75.0117C47.5122 74.2456 47.0837 73.2064 47.0837 72.1229C47.0837 71.0393 47.5122 70.0002 48.2748 69.234C49.0374 68.4678 50.0717 68.0374 51.1503 68.0374H52.389V67.6354H51.1503C49.9656 67.6354 48.8295 68.1082 47.9919 68.9497C47.1542 69.7913 46.6836 70.9327 46.6836 72.1229C46.6836 73.313 47.1542 74.4544 47.9919 75.296C48.8295 76.1375 49.9656 76.6103 51.1503 76.6103H84.2984C85.483 76.6103 86.6191 76.1375 87.4568 75.296C88.2945 74.4544 88.7651 73.313 88.7651 72.1229C88.7651 70.9327 88.2945 69.7913 87.4568 68.9497C86.6191 68.1082 85.483 67.6354 84.2984 67.6354Z" fill="#3F3D56"/>
<path d="M84.2984 81.5039H62.392V81.9059H84.2984C85.3769 81.9059 86.4113 82.3363 87.1739 83.1025C87.9365 83.8687 88.3649 84.9078 88.3649 85.9914C88.3649 87.0749 87.9365 88.1141 87.1739 88.8803C86.4113 89.6464 85.3769 90.0769 84.2984 90.0769H51.1503C50.0717 90.0769 49.0374 89.6464 48.2748 88.8803C47.5122 88.1141 47.0837 87.0749 47.0837 85.9914C47.0837 84.9078 47.5122 83.8687 48.2748 83.1025C49.0374 82.3363 50.0717 81.9059 51.1503 81.9059H52.389V81.5039H51.1503C49.9656 81.5039 48.8295 81.9767 47.9919 82.8183C47.1542 83.6598 46.6836 84.8012 46.6836 85.9914C46.6836 87.1815 47.1542 88.3229 47.9919 89.1645C48.8295 90.0061 49.9656 90.4789 51.1503 90.4789H84.2984C85.483 90.4789 86.6191 90.0061 87.4568 89.1645C88.2945 88.3229 88.7651 87.1815 88.7651 85.9914C88.7651 84.8012 88.2945 83.6598 87.4568 82.8183C86.6191 81.9767 85.483 81.5039 84.2984 81.5039Z" fill="#3F3D56"/>
<path d="M84.2984 95.3723H62.392V95.7743H84.2984C85.3769 95.7743 86.4113 96.2047 87.1739 96.9709C87.9365 97.7371 88.3649 98.7763 88.3649 99.8598C88.3649 100.943 87.9365 101.983 87.1739 102.749C86.4113 103.515 85.3769 103.945 84.2984 103.945H51.1503C50.0717 103.945 49.0374 103.515 48.2748 102.749C47.5122 101.983 47.0837 100.943 47.0837 99.8598C47.0837 98.7763 47.5122 97.7371 48.2748 96.9709C49.0374 96.2047 50.0717 95.7743 51.1503 95.7743H52.389V95.3723H51.1503C49.9656 95.3723 48.8295 95.8451 47.9919 96.6867C47.1542 97.5282 46.6836 98.6696 46.6836 99.8598C46.6836 101.05 47.1542 102.191 47.9919 103.033C48.8295 103.874 49.9656 104.347 51.1503 104.347H84.2984C85.483 104.347 86.6191 103.874 87.4568 103.033C88.2945 102.191 88.7651 101.05 88.7651 99.8598C88.7651 98.6696 88.2945 97.5282 87.4568 96.6867C86.6191 95.8451 85.483 95.3723 84.2984 95.3723Z" fill="#3F3D56"/>
<path d="M54.8613 66.5734C54.5492 66.5786 54.2517 66.7069 54.0329 66.9304C53.814 67.154 53.6914 67.455 53.6914 67.7685C53.6914 68.0821 53.814 68.383 54.0329 68.6066C54.2517 68.8302 54.5492 68.9584 54.8613 68.9636H60.08C60.3948 68.9678 60.6985 68.8464 60.9245 68.6261C61.1504 68.4057 61.2802 68.1044 61.2854 67.7881C61.2905 67.4717 61.1707 67.1663 60.9521 66.9386C60.7334 66.7109 60.4339 66.5796 60.119 66.5734C60.106 66.5732 60.093 66.5732 60.08 66.5734H54.8613Z" fill="#6C63FF"/>
<path d="M54.8613 80.6429C54.5492 80.6481 54.2517 80.7763 54.0329 80.9999C53.814 81.2234 53.6914 81.5244 53.6914 81.838C53.6914 82.1515 53.814 82.4525 54.0329 82.6761C54.2517 82.8996 54.5492 83.0278 54.8613 83.0331H60.08C60.3948 83.0373 60.6985 82.9159 60.9245 82.6956C61.1504 82.4752 61.2802 82.1738 61.2854 81.8575C61.2905 81.5412 61.1707 81.2357 60.9521 81.008C60.7334 80.7804 60.4339 80.649 60.119 80.6429C60.106 80.6426 60.093 80.6426 60.08 80.6429H54.8613Z" fill="#FF6584"/>
<path d="M54.8616 94.3103C54.5494 94.3155 54.2519 94.4437 54.033 94.6673C53.8141 94.8908 53.6914 95.1919 53.6914 95.5055C53.6914 95.8191 53.8141 96.1201 54.033 96.3437C54.2519 96.5672 54.5494 96.6954 54.8616 96.7006H60.0803C60.3955 96.7054 60.6998 96.5843 60.9263 96.3639C61.1528 96.1435 61.2829 95.8418 61.2881 95.5251C61.2932 95.2083 61.173 94.9025 60.9539 94.6747C60.7348 94.4469 60.4346 94.3159 60.1193 94.3103C60.1063 94.3101 60.0933 94.3101 60.0803 94.3103H54.8616Z" fill="#3F3D56"/>
<path d="M52.7911 70.9278C52.479 70.933 52.1815 71.0612 51.9626 71.2847C51.7437 71.5083 51.6211 71.8093 51.6211 72.1229C51.6211 72.4364 51.7437 72.7375 51.9626 72.961C52.1815 73.1846 52.479 73.3128 52.7911 73.318H82.6172C82.7736 73.321 82.9291 73.2929 83.0748 73.2354C83.2204 73.1779 83.3533 73.0921 83.4659 72.9829C83.5785 72.8737 83.6686 72.7433 83.7309 72.5991C83.7932 72.4549 83.8267 72.2997 83.8292 72.1425C83.8318 71.9854 83.8035 71.8292 83.7459 71.683C83.6883 71.5368 83.6025 71.4035 83.4936 71.2907C83.3846 71.1778 83.2546 71.0877 83.1109 71.0254C82.9672 70.9631 82.8127 70.93 82.6562 70.9278C82.6432 70.9276 82.6302 70.9276 82.6172 70.9278H52.7911Z" fill="#E6E6E6"/>
<path d="M52.7911 84.7962C52.479 84.8014 52.1815 84.9296 51.9626 85.1532C51.7437 85.3767 51.6211 85.6777 51.6211 85.9913C51.6211 86.3049 51.7437 86.6059 51.9626 86.8294C52.1815 87.053 52.479 87.1812 52.7911 87.1864H82.6172C82.7736 87.1894 82.9291 87.1613 83.0748 87.1038C83.2204 87.0463 83.3533 86.9605 83.4659 86.8513C83.5785 86.7421 83.6686 86.6117 83.7309 86.4675C83.7932 86.3233 83.8267 86.1682 83.8292 86.011C83.8318 85.8538 83.8035 85.6976 83.7459 85.5514C83.6883 85.4052 83.6025 85.2719 83.4936 85.1591C83.3846 85.0462 83.2546 84.9561 83.1109 84.8938C82.9672 84.8316 82.8127 84.7984 82.6562 84.7962C82.6432 84.796 82.6302 84.796 82.6172 84.7962H52.7911Z" fill="#E6E6E6"/>
<path d="M52.7911 98.6647C52.479 98.6699 52.1815 98.7981 51.9626 99.0217C51.7437 99.2452 51.6211 99.5463 51.6211 99.8598C51.6211 100.173 51.7437 100.474 51.9626 100.698C52.1815 100.921 52.479 101.05 52.7911 101.055H82.6172C82.7736 101.058 82.9291 101.03 83.0748 100.972C83.2204 100.915 83.3533 100.829 83.4659 100.72C83.5785 100.611 83.6686 100.48 83.7309 100.336C83.7932 100.192 83.8267 100.037 83.8292 99.8795C83.8318 99.7223 83.8035 99.5661 83.7459 99.42C83.6883 99.2738 83.6025 99.1404 83.4936 99.0276C83.3846 98.9148 83.2546 98.8246 83.1109 98.7624C82.9672 98.7001 82.8127 98.6669 82.6562 98.6647C82.6432 98.6645 82.6302 98.6645 82.6172 98.6647H52.7911Z" fill="#E6E6E6"/>
<path d="M83.0963 143.559C82.7854 141.545 82.1787 139.588 81.2962 137.753L81.1676 137.486L80.212 138.55L80.92 136.965L80.8737 136.873C80.2489 135.63 79.5565 134.423 78.7996 133.257L78.6592 133.041L78.4719 133.25L78.603 132.956L78.5374 132.857C77.5999 131.444 76.8796 130.551 76.8725 130.542L76.6688 130.29L76.5378 130.59C76.5138 130.646 74.1333 136.156 73.818 141.602L73.813 141.687L75.4151 143.633L73.7812 142.602L73.7841 142.976C73.7891 143.616 73.8324 144.255 73.9139 144.89C73.9859 145.436 74.0706 145.969 74.168 146.489C74.3224 146.494 74.4727 146.541 74.6024 146.625C74.4896 146.044 74.3922 145.447 74.3104 144.833C74.2473 144.344 74.2076 143.846 74.1917 143.35L77.3521 145.343L74.2224 141.543C74.5073 136.939 76.2759 132.3 76.7725 131.076C77.0389 131.423 77.5416 132.097 78.143 132.997L77.0498 135.446L78.6084 133.71C79.2841 134.766 79.9065 135.856 80.4733 136.976L78.7899 140.746L81.066 138.211C81.861 139.928 82.4112 141.75 82.7006 143.621C83.099 146.644 83.0212 149.549 82.4816 151.799C81.9648 153.955 81.0538 155.279 79.9823 155.434C79.7618 155.465 79.5374 155.451 79.3221 155.395C79.1494 155.518 78.9415 155.582 78.7297 155.576H78.6713C79.0037 155.762 79.3763 155.862 79.7564 155.869C79.8503 155.869 79.9441 155.862 80.037 155.849C81.2968 155.667 82.3029 154.265 82.8697 151.901C83.4214 149.6 83.5022 146.639 83.0963 143.559Z" fill="#3F3D56"/>
<path d="M79.5674 155.71C77.9196 155.71 75.5437 154.8 73.1871 153.142C72.8402 152.896 72.509 152.628 72.1954 152.341L71.9314 152.098L72.9294 151.81L71.6006 151.761L71.5445 151.702C69.0537 149.081 67.5038 145.379 67.4883 145.342L67.3672 145.05L67.6821 145.064C67.7135 145.066 68.4622 145.101 69.5876 145.261L69.6577 145.271V145.271L69.9045 145.309C70.8234 145.449 71.7337 145.641 72.6312 145.884L72.727 145.91L73.0264 146.651L72.981 145.987L73.2557 146.066C74.5576 146.444 75.7942 147.02 76.9223 147.774C80.5061 150.295 82.4891 153.447 81.4408 154.95C81.0825 155.465 80.423 155.71 79.5674 155.71ZM72.7368 152.284C72.9557 152.47 73.1835 152.647 73.4171 152.813C76.6995 155.122 80.2238 155.995 81.113 154.72C82.002 153.445 79.9796 150.416 76.6967 148.106C75.6839 147.429 74.5805 146.901 73.4196 146.536L73.5971 149.132L72.4311 146.247C71.6632 146.042 70.8776 145.873 70.0911 145.745L70.22 147.629L69.4175 145.643C68.7957 145.558 68.2945 145.511 67.9896 145.487C68.4053 146.404 69.7787 149.236 71.7781 151.365L75.4452 151.5L72.7368 152.284Z" fill="#3F3D56"/>
</g>
<defs>
<clipPath id="clip0_2351_15382">
<rect width="193" height="162" fill="white"/>
</clipPath>
</defs>
</svg>

<svg width="193" height="162" fill="none" xmlns="http://www.w3.org/2000/svg"><g clip-path="url(#a)"><path d="m41.894 101.237 3.295 1.903a2.635 2.635 0 0 0 3.182-.419 2.667 2.667 0 0 0-.545-4.187 2.635 2.635 0 0 0-1.174-.35l-3.991-.22-12.022-3.656-1.938-7.291-5.068 2.86 3.485 8.289 14.776 3.071Z" fill="#FFB8B8"/><path d="M26.184 63.397c-.763.868-.625 1.913-.07 2.76.555.848 1.48 1.554 2.288 2.302.52.48 1 .99 1.233 1.569a1.709 1.709 0 0 1-.278 1.8c-.53.63-1.516 1.055-2.478 1.42a48.66 48.66 0 0 1-8.485 2.348c2.437-2.86 3.657-6.082 3.479-9.186-.038-.65-.134-1.308.092-1.96a2.664 2.664 0 0 1 1.818-1.599c.968-.279 2.244-.003 2.392.635" fill="#2F2E41"/><path d="m5.305 155.196 3.487.152 6.882-31.939-5.973.258-4.396 31.529Zm34.871-6.854-2.88 1.523-18.019-26.858 5.739-2.538 15.16 27.873ZM20.09 73.45c3.046 0 5.516-2.48 5.516-5.54 0-3.061-2.47-5.542-5.516-5.542s-5.516 2.48-5.516 5.541c0 3.06 2.47 5.541 5.516 5.541Z" fill="#FFB8B8"/><path d="M17.283 70.814s-1.971 4.113-4.7 3.96c0 0-5.155-2.132-6.822 3.656L3.94 83l24.106 4.112s-1.365-8.377-4.548-8.53c0 0-3.639-.304-3.184-1.675.455-1.37 2.122-4.57 2.122-4.57l-5.154-1.523Z" fill="#FFB8B8"/><path d="m25.317 91.834-3.64 7.92 3 12.802 14.604 27.536s-6.726 6.062-8.403 7.034c-1.454.844-13.562-22.019-14.004-26.732-.146-1.555-2.8 29.948-2.8 29.948s-10.01-1.659-12.804-2.211c0 0 2.013-14.329 3.2-27.737.916-10.335.084-19.701 5.231-24.143l-.455-8.835 12.129-.456 3.942 4.874ZM6.48 161.07l5.567.812a1.845 1.845 0 0 0 2.313-.928 1.87 1.87 0 0 0-.308-2.082l-2.363-2.557-1.7-3.686c-1.017-1.044-1.713-.675-2.101 1.04l-2.719-.858-.713 4.814a3.19 3.19 0 0 0 .405 2.083c.368.627.94 1.108 1.62 1.362Zm31.73-5.036 5.625-.02c.45.096.92.02 1.318-.213a1.861 1.861 0 0 0 .84-2.149 1.856 1.856 0 0 0-.616-.912l-2.712-2.18-2.222-3.395c-1.158-.882-1.792-.414-1.925 1.34l-2.815-.447v4.867c0 .728.25 1.434.705 2a3.166 3.166 0 0 0 1.802 1.109ZM17.307 59.391c-.937-.411-2.052-.25-2.957.229-.904.479-1.627 1.242-2.26 2.05a17.336 17.336 0 0 0-3.637 9.733c-.05.968-.003 1.992.499 2.82.551.91 1.56 1.433 2.56 1.789 3.352 1.173 7.03.97 10.234-.566a36.36 36.36 0 0 1-4.658-4.545c-.265-.31-.542-.707-.407-1.093.085-.187.216-.35.382-.47l3.247-2.834-.081 1.146a3.3 3.3 0 0 0 1.785-.653 3.323 3.323 0 0 0 1.133-1.532c-.156.317.143.707.488.779.345.071.695-.072 1.02-.212.785-.34 1.638-.744 1.987-1.53a2.203 2.203 0 0 0-.046-1.73 4.351 4.351 0 0 0-1.057-1.416 8.801 8.801 0 0 0-8.253-2.062" fill="#2F2E41"/><path d="m16.204 100.444 2.422 2.944a2.648 2.648 0 0 0 2.01.963 2.635 2.635 0 0 0 2.03-.92 2.658 2.658 0 0 0 .577-2.323 2.658 2.658 0 0 0-1.517-1.846l-3.66-1.613-9.982-7.66.731-7.51-5.745.891.37 8.99 12.764 8.084Z" fill="#FFB8B8"/><path d="M31.231 93.814s-2.36-8.686-3.606-8.684c-1.245.002-2.913-.15-2.913-.15s-1.971-5.788-12.129-3.96c-10.157 1.827-5.76-1.676-8.641-.305C1.062 82.085 0 91.68 0 91.68s15.616-5.178 18.95-2.284a37.033 37.033 0 0 0 6.217 4.417s-1.516 3.808 6.064 0Z" fill="#2F2E41"/><path d="M85.367 155.557H24.148v.402h61.219v-.402Z" fill="#3F3D56"/><path d="M132.378 86.215c20.441 0 37.011-16.648 37.011-37.184 0-20.535-16.57-37.183-37.011-37.183-20.44 0-37.01 16.648-37.01 37.183 0 20.536 16.57 37.184 37.01 37.184Z" fill="#E6E6E6"/><path d="M125.379 28.33H64.16v.401h61.219v-.402Zm59.017 11.054H64.16v.402h120.236v-.402Z" fill="#3F3D56"/><path d="M147.383 78.98c-20.518 0-37.211-16.771-37.211-37.385 0-20.614 16.693-37.385 37.211-37.385 20.518 0 37.211 16.77 37.211 37.385 0 20.614-16.693 37.384-37.211 37.384Zm0-74.368c-20.298 0-36.811 16.59-36.811 36.983 0 20.392 16.513 36.982 36.811 36.982s36.811-16.59 36.811-36.982-16.513-36.983-36.811-36.983Z" fill="#3F3D56"/><path d="M143.952 9.817c2.698 0 4.886-2.198 4.886-4.909 0-2.71-2.188-4.908-4.886-4.908s-4.886 2.198-4.886 4.908c0 2.711 2.188 4.909 4.886 4.909Z" fill="#6C63FF"/><path d="M110.314 42.14a3.169 3.169 0 0 0 3.161-3.176 3.169 3.169 0 0 0-3.161-3.176 3.17 3.17 0 0 0-3.162 3.176 3.17 3.17 0 0 0 3.162 3.176Z" fill="#FF6584"/><path d="M185.782 46.27c3.987 0 7.22-3.248 7.22-7.254 0-4.006-3.233-7.253-7.22-7.253-3.987 0-7.22 3.247-7.22 7.253s3.233 7.254 7.22 7.254Z" fill="#6C63FF"/><path d="M84.298 67.635H62.392v.402h21.906c1.079 0 2.113.43 2.876 1.197a4.095 4.095 0 0 1 0 5.778 4.057 4.057 0 0 1-2.876 1.196H51.15a4.057 4.057 0 0 1-2.875-1.196 4.095 4.095 0 0 1 0-5.778 4.057 4.057 0 0 1 2.875-1.197h1.239v-.402H51.15c-1.184 0-2.32.473-3.158 1.315a4.498 4.498 0 0 0 0 6.346 4.456 4.456 0 0 0 3.158 1.314h33.148a4.455 4.455 0 0 0 3.159-1.314 4.498 4.498 0 0 0 0-6.346 4.457 4.457 0 0 0-3.159-1.315Zm0 13.869H62.392v.402h21.906c1.079 0 2.113.43 2.876 1.197a4.095 4.095 0 0 1 0 5.777 4.057 4.057 0 0 1-2.876 1.197H51.15a4.057 4.057 0 0 1-2.875-1.197 4.095 4.095 0 0 1 0-5.777 4.057 4.057 0 0 1 2.875-1.197h1.239v-.402H51.15c-1.184 0-2.32.473-3.158 1.314a4.498 4.498 0 0 0 0 6.346 4.456 4.456 0 0 0 3.158 1.315h33.148a4.46 4.46 0 0 0 3.159-1.314 4.498 4.498 0 0 0 0-6.347 4.456 4.456 0 0 0-3.159-1.314Zm0 13.868H62.392v.402h21.906c1.079 0 2.113.43 2.876 1.197a4.095 4.095 0 0 1 0 5.778 4.057 4.057 0 0 1-2.876 1.196H51.15a4.057 4.057 0 0 1-2.875-1.196 4.096 4.096 0 0 1 0-5.778 4.057 4.057 0 0 1 2.875-1.197h1.239v-.402H51.15c-1.184 0-2.32.473-3.158 1.315a4.499 4.499 0 0 0 0 6.346 4.458 4.458 0 0 0 3.158 1.314h33.148a4.46 4.46 0 0 0 3.159-1.314 4.499 4.499 0 0 0 0-6.346 4.456 4.456 0 0 0-3.159-1.315Z" fill="#3F3D56"/><path d="M54.861 66.573a1.19 1.19 0 0 0-.828.357 1.198 1.198 0 0 0 .828 2.034h5.219a1.19 1.19 0 0 0 .845-.338 1.198 1.198 0 0 0-.806-2.053h-5.258Z" fill="#6C63FF"/><path d="M54.861 80.643c-.312.005-.61.133-.828.357a1.198 1.198 0 0 0 .828 2.033h5.219a1.19 1.19 0 0 0 .845-.337 1.199 1.199 0 0 0 .027-1.688 1.187 1.187 0 0 0-.872-.365h-5.219Z" fill="#FF6584"/><path d="M54.862 94.31c-.313.005-.61.134-.829.357a1.198 1.198 0 0 0 .829 2.034h5.218c.316.004.62-.117.846-.337a1.198 1.198 0 0 0-.846-2.054h-5.218Z" fill="#3F3D56"/><path d="M52.791 70.928c-.312.005-.61.133-.828.357a1.198 1.198 0 0 0 .828 2.033h29.826a1.185 1.185 0 0 0 1.114-.719 1.2 1.2 0 0 0-.62-1.574 1.185 1.185 0 0 0-.494-.097H52.791Zm0 13.868c-.312.005-.61.134-.828.357a1.198 1.198 0 0 0 .828 2.033h29.826a1.185 1.185 0 0 0 1.114-.719 1.2 1.2 0 0 0-.62-1.573 1.187 1.187 0 0 0-.494-.098H52.791Zm0 13.869c-.312.005-.61.133-.828.357a1.198 1.198 0 0 0 .828 2.033h29.826a1.176 1.176 0 0 0 .849-.335 1.196 1.196 0 0 0 .28-1.3 1.197 1.197 0 0 0-.635-.658 1.185 1.185 0 0 0-.494-.097H52.791Z" fill="#E6E6E6"/><path d="M83.096 143.559a20.675 20.675 0 0 0-1.8-5.806l-.128-.267-.956 1.064.708-1.585-.046-.092a37.913 37.913 0 0 0-2.074-3.616l-.14-.216-.188.209.131-.294-.066-.099a33.255 33.255 0 0 0-1.665-2.315l-.203-.252-.131.3c-.024.056-2.405 5.566-2.72 11.012l-.005.085 1.602 1.946-1.634-1.031.003.374c.005.64.048 1.279.13 1.914.072.546.157 1.079.254 1.599a.85.85 0 0 1 .434.136 30.608 30.608 0 0 1-.292-1.792 15.506 15.506 0 0 1-.118-1.483l3.16 1.993-3.13-3.8c.285-4.604 2.054-9.243 2.55-10.467.267.347.77 1.021 1.371 1.921l-1.093 2.449 1.558-1.736a37.353 37.353 0 0 1 1.865 3.266l-1.683 3.77 2.276-2.535a20.243 20.243 0 0 1 1.635 5.41c.398 3.023.32 5.928-.22 8.178-.516 2.156-1.427 3.48-2.499 3.635a1.69 1.69 0 0 1-.66-.039.974.974 0 0 1-.592.181h-.059a2.31 2.31 0 0 0 1.085.293c.094 0 .188-.007.281-.02 1.26-.182 2.266-1.584 2.833-3.948.551-2.301.632-5.262.226-8.342Z" fill="#3F3D56"/><path d="M79.567 155.71c-1.647 0-4.023-.91-6.38-2.568a10.265 10.265 0 0 1-.992-.801l-.264-.243.998-.288-1.328-.049-.056-.059c-2.491-2.621-4.041-6.323-4.057-6.36l-.12-.292.314.014c.031.002.78.037 1.906.197l.07.01.246.038c.92.14 1.83.332 2.727.575l.096.026.3.741-.046-.664.275.079c1.302.378 2.538.954 3.666 1.708 3.584 2.521 5.567 5.673 4.519 7.176-.359.515-1.018.76-1.874.76Zm-6.83-3.426c.219.186.447.363.68.529 3.282 2.309 6.807 3.182 7.696 1.907.889-1.275-1.133-4.304-4.416-6.614a12.81 12.81 0 0 0-3.277-1.57l.177 2.596-1.166-2.885a24.124 24.124 0 0 0-2.34-.502l.129 1.884-.802-1.986a25.493 25.493 0 0 0-1.428-.156c.415.917 1.789 3.749 3.788 5.878l3.667.135-2.708.784Z" fill="#3F3D56"/></g><defs><clipPath id="a"><path fill="#fff" d="M0 0h193v162H0z"/></clipPath></defs></svg>
